files/resources/svgs/general/s-device-tablet.svg

<svg width="24" height="24" viewBox="0 0 24 24" fill="none" xmlns="http://www.w3.org/2000/svg">
<path d="M10.5 18C10.0858 18 9.75 18.3358 9.75 18.75C9.75 19.1642 10.0858 19.5 10.5 19.5H13.5C13.9142 19.5 14.25 19.1642 14.25 18.75C14.25 18.3358 13.9142 18 13.5 18H10.5Z" fill="#0F172A"/>
<path fill-rule="evenodd" clip-rule="evenodd" d="M7.125 1.5C5.26104 1.5 3.75 3.01104 3.75 4.875V19.125C3.75 20.989 5.26104 22.5 7.125 22.5H16.875C18.739 22.5 20.25 20.989 20.25 19.125V4.875C20.25 3.01104 18.739 1.5 16.875 1.5H7.125ZM6 4.875C6 4.25368 6.50368 3.75 7.125 3.75H16.875C17.4963 3.75 18 4.25368 18 4.875V19.125C18 19.7463 17.4963 20.25 16.875 20.25H7.125C6.50368 20.25 6 19.7463 6 19.125V4.875Z" fill="#0F172A"/>
</svg>

<svg xmlns="http://www.w3.org/2000/svg" viewBox="0 0 24 24" fill="currentColor" aria-hidden="true">
  <path d="M10.5 18a.75.75 0 000 1.5h3a.75.75 0 000-1.5h-3z"/>
  <path fill-rule="evenodd" d="M7.125 1.5A3.375 3.375 0 003.75 4.875v14.25A3.375 3.375 0 007.125 22.5h9.75a3.375 3.375 0 003.375-3.375V4.875A3.375 3.375 0 0016.875 1.5h-9.75zM6 4.875c0-.621.504-1.125 1.125-1.125h9.75c.621 0 1.125.504 1.125 1.125v14.25c0 .621-.504 1.125-1.125 1.125h-9.75A1.125 1.125 0 016 19.125V4.875z" clip-rule="evenodd"/>
</svg>
